svg/s/KE.svg

<svg width="16" height="12" viewBox="0 0 16 12" fill="none" xmlns="http://www.w3.org/2000/svg">
<mask id="mask0" mask-type="alpha" maskUnits="userSpaceOnUse" x="0" y="0" width="16" height="12">
<rect width="16" height="12" fill="white"/>
</mask>
<g mask="url(#mask0)">
<path fill-rule="evenodd" clip-rule="evenodd" d="M0 0H16V12H0V0Z" fill="#0067C3"/>
<path fill-rule="evenodd" clip-rule="evenodd" d="M0 0V4H16V0H0Z" fill="#272727"/>
<path fill-rule="evenodd" clip-rule="evenodd" d="M0 8V12H16V8H0Z" fill="#4E8B1D"/>
<path d="M0 3.5H-0.5V4V8V8.5H0H16H16.5V8V4V3.5H16H0Z" fill="#E31D1C" stroke="#F7FCFF"/>
</g>
<path d="M9.81174 2.01522C9.92592 1.80985 10.2329 1.58559 10.7327 1.34244C10.7499 1.33408 10.7706 1.33361 10.7883 1.34116C10.8181 1.35394 10.8305 1.38554 10.8158 1.41168L5.63704 10.7258L5.3674 10.6104L9.93245 2.4001C9.72573 2.37057 9.68549 2.24227 9.81174 2.01522Z" fill="white"/>
<path d="M6.18277 2.01522C6.30901 2.24227 6.26877 2.37057 6.06205 2.4001L10.6271 10.6104L10.3575 10.7258L5.17869 1.41168C5.16396 1.38554 5.17637 1.35394 5.20624 1.34116C5.22389 1.33361 5.24463 1.33408 5.26181 1.34244C5.76159 1.58559 6.06858 1.80985 6.18277 2.01522Z" fill="white"/>
<path fill-rule="evenodd" clip-rule="evenodd" d="M8 10.4737C8.59803 10.4737 11 8.58855 11 6.26314C11 3.93773 8.59803 2.05261 8 2.05261C7.40197 2.05261 5 3.93773 5 6.26314C5 8.58855 7.40197 10.4737 8 10.4737Z" fill="#E31D1C"/>
<mask id="mask1" mask-type="alpha" maskUnits="userSpaceOnUse" x="5" y="2" width="6" height="9">
<path fill-rule="evenodd" clip-rule="evenodd" d="M8 10.4737C8.59803 10.4737 11 8.58855 11 6.26314C11 3.93773 8.59803 2.05261 8 2.05261C7.40197 2.05261 5 3.93773 5 6.26314C5 8.58855 7.40197 10.4737 8 10.4737Z" fill="white"/>
</mask>
<g mask="url(#mask1)">
<path d="M2.5 9.94728C4.8196 9.94728 6.7 8.2978 6.7 6.26307C6.7 4.22833 4.8196 2.57886 2.5 2.57886C0.180407 2.57886 -1.7 4.22833 -1.7 6.26307C-1.7 8.2978 0.180407 9.94728 2.5 9.94728Z" fill="#272727"/>
<path d="M13.5 9.94728C15.8196 9.94728 17.7 8.2978 17.7 6.26307C17.7 4.22833 15.8196 2.57886 13.5 2.57886C11.1804 2.57886 9.3 4.22833 9.3 6.26307C9.3 8.2978 11.1804 9.94728 13.5 9.94728Z" fill="#272727"/>
<path fill-rule="evenodd" clip-rule="evenodd" d="M8.11999 5.69999C8.39386 5.52931 8.59999 4.78593 8.59999 3.89473C8.59999 3.00354 8.39386 2.26016 8.11999 2.08948V5.69999ZM7.81999 5.65251C7.57657 5.41777 7.39999 4.71956 7.39999 3.89473C7.39999 3.06991 7.57657 2.37169 7.81999 2.13696V5.65251ZM7.81999 6.8738V10.3893C7.57657 10.1546 7.39999 9.45641 7.39999 8.63158C7.39999 7.80675 7.57657 7.10854 7.81999 6.8738ZM8.11999 10.4368V6.82632C8.39386 6.997 8.59999 7.74038 8.59999 8.63158C8.59999 9.52277 8.39386 10.2662 8.11999 10.4368Z" fill="#F7FCFF"/>
<path d="M7.99999 5.7368C8.33136 5.7368 8.59999 5.97244 8.59999 6.26311C8.59999 6.55379 8.33136 6.78943 7.99999 6.78943C7.66862 6.78943 7.39999 6.55379 7.39999 6.26311C7.39999 5.97244 7.66862 5.7368 7.99999 5.7368Z" fill="#F7FCFF"/>
</g>
</svg>

<svg width="16" height="12" fill="none" xmlns="http://www.w3.org/2000/svg">
  <mask id="a" maskUnits="userSpaceOnUse" x="0" y="0" width="16" height="12">
    <path fill="#fff" d="M0 0h16v12H0z"/>
  </mask>
  <g mask="url(#a)">
    <path fill-rule="evenodd" clip-rule="evenodd" d="M0 0h16v12H0V0z" fill="#0067C3"/>
    <path fill-rule="evenodd" clip-rule="evenodd" d="M0 0v4h16V0H0z" fill="#272727"/>
    <path fill-rule="evenodd" clip-rule="evenodd" d="M0 8v4h16V8H0z" fill="#4E8B1D"/>
    <path d="M0 3.5h-.5v5h17v-5H0z" fill="#E31D1C" stroke="#F7FCFF"/>
  </g>
  <path d="M9.812 2.015c.114-.205.42-.43.92-.673a.068.068 0 01.056 0c.03.012.043.044.028.07l-5.179 9.314-.27-.116L9.932 2.4c-.206-.03-.247-.158-.12-.385z" fill="#fff"/>
  <path d="M6.183 2.015c.126.227.086.356-.12.385l4.564 8.21-.27.116L5.18 1.412c-.015-.026-.003-.058.027-.07a.068.068 0 01.056 0c.5.244.807.468.92.673z" fill="#fff"/>
  <path fill-rule="evenodd" clip-rule="evenodd" d="M8 10.474c.598 0 3-1.885 3-4.21 0-2.326-2.402-4.211-3-4.211-.598 0-3 1.885-3 4.21 0 2.326 2.402 4.21 3 4.21z" fill="#E31D1C"/>
  <mask id="b" maskUnits="userSpaceOnUse" x="5" y="2" width="6" height="9">
    <path fill-rule="evenodd" clip-rule="evenodd" d="M8 10.474c.598 0 3-1.885 3-4.21 0-2.326-2.402-4.211-3-4.211-.598 0-3 1.885-3 4.21 0 2.326 2.402 4.21 3 4.21z" fill="#fff"/>
  </mask>
  <g mask="url(#b)">
    <path d="M2.5 9.947c2.32 0 4.2-1.65 4.2-3.684 0-2.035-1.88-3.684-4.2-3.684-2.32 0-4.2 1.65-4.2 3.684 0 2.035 1.88 3.684 4.2 3.684zm11 0c2.32 0 4.2-1.65 4.2-3.684 0-2.035-1.88-3.684-4.2-3.684-2.32 0-4.2 1.65-4.2 3.684 0 2.035 1.88 3.684 4.2 3.684z" fill="#272727"/>
    <path fill-rule="evenodd" clip-rule="evenodd" d="M8.12 5.7c.274-.17.48-.914.48-1.805 0-.891-.206-1.635-.48-1.806V5.7zm-.3-.047c-.243-.235-.42-.933-.42-1.758s.177-1.523.42-1.758v3.516zm0 1.22v3.516c-.243-.234-.42-.933-.42-1.757 0-.825.177-1.523.42-1.758zm.3 3.564v-3.61c.274.17.48.913.48 1.805 0 .89-.206 1.634-.48 1.805z" fill="#F7FCFF"/>
    <path d="M8 5.737c.331 0 .6.235.6.526 0 .29-.269.526-.6.526-.331 0-.6-.235-.6-.526 0-.29.269-.526.6-.526z" fill="#F7FCFF"/>
  </g>
</svg>
